outputs/icons/enterprise/calculator_round.svg

<svg width="1200" height="1200" viewBox="0 0 1200 1200" fill="none" xmlns="http://www.w3.org/2000/svg"><path d="M887.5 100H362.5C345.924 100 330.028 106.585 318.307 118.306C306.586 130.027 300 145.924 300 162.5V1037.5C300 1054.075 306.586 1069.975 318.307 1081.695C330.028 1093.415 345.924 1100 362.5 1100H887.5C904.075 1100 919.975 1093.415 931.695 1081.695C943.415 1069.975 950 1054.075 950 1037.5V162.5C950 145.924 943.415 130.027 931.695 118.306C919.975 106.585 904.075 100 887.5 100ZM500 950H362.5V850H500V950ZM500 750H350V650H500V750ZM500 550H350V450H500V550ZM700 950H550V850H700V950ZM700 750H550V650H700V750ZM700 550H550V450H700V550ZM900 1050H750V850H900V1050ZM900 750H750V650H900V750ZM900 550H750V450H900V550ZM900 350H350V150H900V350Z" fill="#1D1E23"/></svg>

<svg xmlns="http://www.w3.org/2000/svg" width="1200" height="1200" fill="none"><path fill="#000" d="M887.5 100h-525a62.5 62.5 0 0 0-62.5 62.5v875a62.503 62.503 0 0 0 62.5 62.5h525a62.5 62.5 0 0 0 44.195-18.305A62.5 62.5 0 0 0 950 1037.5v-875a62.503 62.503 0 0 0-62.5-62.5M500 950H362.5V850H500zm0-200H350V650h150zm0-200H350V450h150zm200 400H550V850h150zm0-200H550V650h150zm0-200H550V450h150zm200 500H750V850h150zm0-300H750V650h150zm0-200H750V450h150zm0-200H350V150h550z"/></svg>
